X:445
T:Reel 445
M:4/4
K:Dmaj
L:1/8
FDDA FDDA| (3Bcd AF E2FG|FDDF EDAB||dfed BcdB:||2dfec dBAF|Ad (3ddd d2d2|Ad (3ddd efed|AD (3DDD A2Bc||BAFG AFGE:||2ecdB AFA2|
